X:008
T:Rochdale Coconut Dance
M:4/4
L:1/8
K:G
G2 BB G2 B2 | cBAG FGAc | G2 BB G2 B2 | AGFE D2 d2 | 
G2 BB G2 B2 | cBAG FGAc | BdBG AcAF | G4 G4 :|| 
EFGF E2 B2 | EFGF E2 B2 | c2 Ac B2 GB | AGFE D4 | 
EFGF E2 B2 | EFGF E2 B2 | c2 Ac B2 GB | A2 F2 G4 :|| 

